X:1
T:B minor William Billings, 1770
T:Isaac Watts, 1709 (Hymn 106, Book 1) 66. 86. (S. M.)
T:Hingham No copyright.  Transcribed from The New England Psalm-Singer, 1770.
%%score [ 1 2 3 4 ]
L:1/8
M:none
K:D
V:1 treble nm="Treble" snm="Tr."
V:2 treble nm="Counter" snm="C."
V:3 treble-8 nm="Tenor" snm="T."
V:4 bass nm="Bass" snm="B."
V:1
 B4 | c4 d4 | [cf]4 [Bf]4 | [Acf]4 [Af]4 | [da]4 [eg]4 | [cf]4 [cf]4 | [Bf]4 [Bf]4 | [ce]4 d4 | %8
w: 1.~Shall|we go|on to|sin Be-|cause Thy|grace a-|bounds; Or|cru- ci-|
 d4 d4 | [ce]4 [Bf]4 | [Acf]4 [Bdf]4 | [cf]4 d4 | [cg]4 [Af]4 | [Bf]8 |] %14
w: fy the|Lord a-|gain, And|op- en|all His|wounds?|
V:2
 F4 | F4 G4 | A4 B4 | [FA]4 F4 | F4 B4 | A4 [FA]4 | [FB]4 B4 | A4 A4 | A4 A4 | A4 B4 | [FA]4 B4 | %11
w: 2.~For-|bid it,|migh- ty|God! Nor|let it|e'er be|said, That|we whose|sins are|cru- ci-|fied Should|
 A4 B4 | B4 A4 | [FB]8 |] %14
w: raise them|from the|dead.|
V:3
 B4 | A4 B4 | c4 d4 | c4 c4 | d4 B4 | c4 A4 | B4 d4 | e4 f4 | d4 f4 | e4 d4 | c4 f4 | f4 d4 | %12
w: 3.~We|will be|slaves no|more, Since|Christ has|made us|free; Has|nailed our|ty- rants|to His|cross, And|bought our|
 e4 c4 | B8 |] %14
w: li- ber-|ty.|
V:4
 [B,,B,]4 | [F,,F,]4 [G,,G,]4 | [F,,F,]4 [B,,B,]4 | [F,,F,]4 [F,,F,]4 | [B,,D,]4 [B,,E,]4 | %5
 [F,,F,]4 [F,,F,]4 | B,,4 [B,,B,]4 | [A,,A,]4 [F,,F,]4 | [F,,F,]4 [F,,D,]4 | [A,,A,]4 [B,,B,]4 | %10
 [F,,F,]4 [B,,B,]4 | [F,,F,]4 [G,,G,]4 | [E,,E,]4 [F,,F,]4 | B,,8 |] %14

